brandFactory_export/3.Masa/Valoracion_3Masa.svg

<?xml version="1.0" encoding="UTF-8"?>
<svg width="24px" height="24px" viewBox="0 0 24 24" version="1.1" xmlns="http://www.w3.org/2000/svg" xmlns:xlink="http://www.w3.org/1999/xlink">
    <title>3.Masa/Valoracion_3Masa</title>
    <g id="Symbols" stroke="none" stroke-width="1" fill="none" fill-rule="evenodd">
        <g id="3.Masa/Valoracion_3Masa" fill="#5CB615" fill-rule="nonzero">
            <path d="M21.9058824,19.3529412 C22.0537815,19.3529412 22.1747899,19.2386555 22.1747899,19.0941176 L22.1747899,7.49747899 L1.4487395,7.49747899 L1.4487395,19.0941176 C1.4487395,19.2352941 1.5697479,19.3529412 1.71764706,19.3529412 L21.9058824,19.3529412 Z M3.82521008,5.6789916 C3.82521008,5.31932773 3.52605042,5.03361345 3.15294118,5.03361345 C2.77983193,5.03361345 2.48067227,5.32268908 2.48067227,5.6789916 C2.48067227,6.03529412 2.77983193,6.32436975 3.15294118,6.32436975 C3.52605042,6.32436975 3.82521008,6.03529412 3.82521008,5.6789916 Z M5.83865546,5.6789916 C5.83865546,5.31932773 5.5394958,5.03361345 5.1697479,5.03361345 C4.79663866,5.03361345 4.49747899,5.32268908 4.49747899,5.6789916 C4.49747899,6.03529412 4.79663866,6.32436975 5.1697479,6.32436975 C5.5394958,6.32436975 5.83865546,6.03529412 5.83865546,5.6789916 Z M7.85210084,5.6789916 C7.85210084,5.31932773 7.55294118,5.03361345 7.17983193,5.03361345 C6.80672269,5.03361345 6.50756303,5.32268908 6.50756303,5.6789916 C6.50756303,6.03529412 6.80672269,6.32436975 7.17983193,6.32436975 C7.55294118,6.32436975 7.85210084,6.03529412 7.85210084,5.6789916 Z M21.9058824,3.02689076 C22.8504202,3.02689076 23.6235294,3.76638655 23.6235294,4.68067227 L23.6235294,19.0941176 C23.6235294,20.005042 22.8537815,20.7478992 21.9058824,20.7478992 L1.71428571,20.7478992 C0.766386555,20.7478992 0,20.0084034 0,19.0941176 L0,4.68067227 C0,3.7697479 0.769747899,3.02689076 1.71428571,3.02689076 L21.9058824,3.02689076 Z M14.0336134,12.0991597 C14.2621849,12.1327731 14.4504202,12.287395 14.5243697,12.5058824 C14.6016807,12.7310924 14.5445378,12.9731092 14.3731092,13.1411765 L13.5058824,13.9882353 C13.4991597,13.994958 13.4957983,14.005042 13.4991597,14.0117647 L13.7042017,15.2084034 C13.7445378,15.4470588 13.6470588,15.6789916 13.4453782,15.8134454 C13.3411765,15.8840336 13.2201681,15.9210084 13.0991597,15.9210084 C13.0016807,15.9210084 12.9008403,15.897479 12.810084,15.8504202 L11.7411765,15.2857143 C11.7378151,15.2823529 11.7344538,15.2823529 11.7310924,15.2857143 L10.6588235,15.8504202 C10.4571429,15.9579832 10.2117647,15.9445378 10.0235294,15.8134454 C9.82521008,15.6756303 9.72436975,15.4436975 9.76470588,15.2084034 L9.9697479,14.0117647 C9.9697479,14.005042 9.96638655,13.9915966 9.96302521,13.9882353 L9.09579832,13.1411765 C8.92436975,12.9731092 8.86722689,12.7310924 8.94453782,12.5058824 C9.01848739,12.2907563 9.20672269,12.1327731 9.43529412,12.0991597 L10.6319328,11.9243697 C10.6352941,11.9243697 10.6420168,11.9210084 10.6453782,11.9142857 L11.1798319,10.8252101 C11.2840336,10.6134454 11.4957983,10.4823529 11.7310924,10.4823529 C11.9663866,10.4823529 12.1815126,10.6134454 12.2857143,10.8252101 L12.8201681,11.9142857 C12.8235294,11.9210084 12.8268908,11.9243697 12.8336134,11.9243697 L14.0336134,12.0991597 Z M20.789916,12.0991597 C21.0184874,12.1327731 21.2067227,12.287395 21.2806723,12.5058824 C21.3579832,12.7310924 21.3008403,12.9731092 21.1294118,13.1411765 L20.2621849,13.9882353 C20.2554622,13.994958 20.2521008,14.005042 20.2554622,14.0117647 L20.4605042,15.2084034 C20.5008403,15.4470588 20.4033613,15.6789916 20.2016807,15.8134454 C20.097479,15.8840336 19.9764706,15.9210084 19.8554622,15.9210084 C19.7579832,15.9210084 19.6571429,15.897479 19.5663866,15.8504202 L18.497479,15.2857143 C18.4941176,15.2823529 18.4907563,15.2823529 18.487395,15.2857143 L17.4151261,15.8504202 C17.2134454,15.9579832 16.9680672,15.9445378 16.7798319,15.8134454 C16.5815126,15.6756303 16.4806723,15.4436975 16.5210084,15.2084034 L16.7260504,14.0117647 C16.7260504,14.005042 16.7226891,13.9915966 16.7193277,13.9882353 L15.8521008,13.1411765 C15.6806723,12.9731092 15.6235294,12.7310924 15.7008403,12.5058824 C15.7747899,12.2907563 15.9630252,12.1327731 16.1915966,12.0991597 L17.3882353,11.9243697 C17.3915966,11.9243697 17.3983193,11.9210084 17.4016807,11.9142857 L17.9361345,10.8252101 C18.0403361,10.6134454 18.2521008,10.4823529 18.487395,10.4823529 C18.7226891,10.4823529 18.9378151,10.6134454 19.0420168,10.8252101 L19.5764706,11.9142857 C19.5798319,11.9210084 19.5831933,11.9243697 19.589916,11.9243697 L20.789916,12.0991597 L20.789916,12.0991597 Z M7.27394958,12.0991597 C7.50252101,12.1327731 7.6907563,12.287395 7.76470588,12.5058824 C7.84201681,12.7310924 7.78487395,12.9731092 7.61344538,13.1411765 L6.74621849,13.9882353 C6.7394958,13.994958 6.73613445,14.005042 6.7394958,14.0117647 L6.94453782,15.2084034 C6.98487395,15.4470588 6.88739496,15.6789916 6.68571429,15.8134454 C6.58151261,15.8840336 6.4605042,15.9210084 6.3394958,15.9210084 C6.24201681,15.9210084 6.14117647,15.897479 6.05042017,15.8504202 L4.97815126,15.2857143 C4.97478992,15.2823529 4.97142857,15.2823529 4.96806723,15.2857143 L3.89579832,15.8504202 C3.69411765,15.9579832 3.4487395,15.9445378 3.2605042,15.8134454 C3.06218487,15.6756303 2.96134454,15.4436975 3.00168067,15.2084034 L3.20672269,14.0117647 C3.20672269,14.005042 3.20336134,13.9915966 3.2,13.9882353 L2.33277311,13.1411765 C2.16134454,12.9731092 2.10420168,12.7310924 2.18151261,12.5058824 C2.25546218,12.2907563 2.44369748,12.1327731 2.67226891,12.0991597 L3.86890756,11.9243697 C3.87226891,11.9243697 3.8789916,11.9210084 3.88235294,11.9142857 L4.41680672,10.8252101 C4.5210084,10.6134454 4.73277311,10.4823529 4.96806723,10.4823529 C5.20336134,10.4823529 5.41848739,10.6134454 5.52268908,10.8252101 L6.05714286,11.9142857 C6.0605042,11.9210084 6.06386555,11.9243697 6.07058824,11.9243697 L7.27394958,12.0991597 Z" id="Valoracion_3Masa"></path>
        </g>
    </g>
</svg>

<svg width="24" height="24" viewBox="0 0 24 24" xmlns="http://www.w3.org/2000/svg"><path d="M21.906 19.353a.263.263 0 00.269-.259V7.497H1.449v11.597c0 .141.12.259.269.259h20.188zM3.826 5.679c0-.36-.3-.645-.673-.645a.658.658 0 00-.672.645c0 .356.299.645.672.645.373 0 .672-.289.672-.645zm2.013 0c0-.36-.3-.645-.67-.645a.658.658 0 00-.672.645c0 .356.3.645.673.645.37 0 .669-.289.669-.645zm2.013 0c0-.36-.3-.645-.672-.645a.658.658 0 00-.672.645c0 .356.299.645.672.645.373 0 .672-.289.672-.645zm14.054-2.652c.944 0 1.718.74 1.718 1.654v14.413c0 .911-.77 1.654-1.718 1.654H1.714c-.948 0-1.714-.74-1.714-1.654V4.681c0-.911.77-1.654 1.714-1.654h20.192zm-7.872 9.072a.607.607 0 01.49.407.605.605 0 01-.15.635l-.868.847c-.007.007-.01.017-.007.024l.205 1.196a.597.597 0 01-.259.605.619.619 0 01-.635.037l-1.069-.564c-.003-.004-.007-.004-.01 0l-1.072.564a.61.61 0 01-.635-.037.608.608 0 01-.26-.605l.206-1.196c0-.007-.004-.02-.007-.024l-.867-.847a.613.613 0 01.34-1.042l1.196-.175c.003 0 .01-.003.013-.01l.535-1.089a.616.616 0 011.106 0l.534 1.09c.004.006.007.01.014.01l1.2.174zm6.756 0a.607.607 0 01.49.407.605.605 0 01-.15.635l-.868.847c-.007.007-.01.017-.007.024l.206 1.196a.597.597 0 01-.26.605.619.619 0 01-.635.037l-1.069-.564c-.003-.004-.006-.004-.01 0l-1.072.564a.61.61 0 01-.635-.037.608.608 0 01-.259-.605l.205-1.196c0-.007-.003-.02-.007-.024l-.867-.847a.613.613 0 01.34-1.042l1.196-.175c.004 0 .01-.003.014-.01l.534-1.089a.616.616 0 011.106 0l.534 1.09c.004.006.007.01.014.01l1.2.174zm-13.516 0a.607.607 0 01.49.407.605.605 0 01-.15.635l-.868.847c-.007.007-.01.017-.007.024l.206 1.196a.597.597 0 01-.26.605.619.619 0 01-.635.037l-1.072-.564c-.003-.004-.007-.004-.01 0l-1.072.564a.61.61 0 01-.635-.037.608.608 0 01-.26-.605l.206-1.196c0-.007-.004-.02-.007-.024l-.867-.847a.613.613 0 01.34-1.042l1.196-.175c.003 0 .01-.003.013-.01l.535-1.089a.616.616 0 011.106 0l.534 1.09c.004.006.007.01.014.01l1.203.174z" fill="#5CB615" fill-rule="nonzero"/></svg>
